X: 155
T: Dang de jia yu hao
%%abc-version 2.0
%%abcx-abcm2ps-target-version 5.9.1 (29 Sep 2008)
%%abc-creator hum2abc beta
%%abcx-conversion-date 2013/10/02 07:44:27
%%abc-edited-by Helmut Schaffrath
%%humdrum-veritas 2793338119
%%humdrum-veritas-data 2962568877
%%continueall 1
%%barnumbers 0
L: 1/8
M: 2/4
K: C
AA2d [I:setbarnb 1]| 
A GA2 | 
dc2d | 
e2e2 | 
e A A e | 
A> G E A | 
GE2D | 
E4 | 
dc2d | 
e2e2 | 
eA2e | 
A GE2 | 
D C C A | 
G> E E D | 
A,4 | 
Az3 |]  



